src/24/actions/media-random-tracks-amarok.svg

<svg xmlns="http://www.w3.org/2000/svg" viewBox="0 0 24 24">
  <defs id="defs3051">
    <style type="text/css" id="current-color-scheme">
      .ColorScheme-Text {
        color:#5d656b;
      }
      </style>
  </defs>
 <path style="fill:currentColor;fill-opacity:1;stroke:none" 
     d="M 5.5 4 C 4.6715787 4 4.0000083 4.6715704 4 5.5 C 4.0000083 6.3284296 4.6715787 7 5.5 7 C 6.3284213 7 6.9999917 6.3284296 7 5.5 C 6.9999917 4.6715704 6.3284213 4 5.5 4 z M 8 5 L 8 6 L 9 6 L 9 5 L 8 5 z M 10 5 L 10 6 L 20 6 L 20 5 L 10 5 z M 10 7 L 10 8 L 13 8 L 13 7 L 10 7 z M 5.5 10 C 4.6715732 9.9999988 4 10.671572 4 11.5 C 4 12.328428 4.6715732 13.000001 5.5 13 C 6.3284268 13.000001 7 12.328428 7 11.5 C 7 10.671572 6.3284268 9.9999988 5.5 10 z M 8 11 L 8 12 L 9 12 L 9 11 L 8 11 z M 18 12 L 18 13 L 17 13 L 16.976562 13 C 15.327556 13 14 14.327554 14 15.976562 L 14 16 C 14 17.108 13.108 18 12 18 L 9 18 L 9 19 L 12 19 L 12.023438 19 C 13.672444 19 15 17.672446 15 16.023438 L 15 16 C 15 14.892 15.892 14 17 14 L 18 14 L 18 15 L 20 13.5 L 18 12 z M 9 13 L 9 14 L 12 14 C 12.3989 14 12.766765 14.118679 13.078125 14.318359 C 13.153825 13.981499 13.287997 13.669139 13.466797 13.386719 C 13.037917 13.147809 12.551108 13 12.023438 13 L 12 13 L 9 13 z M 5.5 16 C 4.6715732 15.999999 4 16.671572 4 17.5 C 4 18.328428 4.6715732 19.000001 5.5 19 C 6.3284268 19.000001 7 18.328428 7 17.5 C 7 16.671572 6.3284268 15.999999 5.5 16 z M 18 17 L 18 18 L 17 18 C 16.6011 18 16.233245 17.881321 15.921875 17.681641 C 15.846175 18.018501 15.712003 18.330861 15.533203 18.613281 C 15.962083 18.852191 16.448892 19 16.976562 19 L 17 19 L 18 19 L 18 20 L 20 18.5 L 18 17 z "
     class="ColorScheme-Text"
     />
</svg>

<svg xmlns="http://www.w3.org/2000/svg" viewBox="0 0 24 24"><path d="M5.5 4a1.5 1.5 0 1 0 0 3 1.5 1.5 0 0 0 0-3zM8 5v1h1V5H8zm2 0v1h10V5H10zm0 2v1h3V7h-3zm-4.5 3a1.5 1.5 0 1 0 0 3 1.5 1.5 0 0 0 0-3zM8 11v1h1v-1H8zm10 1v1h-1.023A2.97 2.97 0 0 0 14 15.977V16c0 1.108-.892 2-2 2H9v1h3.023A2.97 2.97 0 0 0 15 16.023V16c0-1.108.892-2 2-2h1v1l2-1.5-2-1.5zm-9 1v1h3c.399 0 .767.119 1.078.318.076-.337.21-.649.389-.931A2.95 2.95 0 0 0 12.023 13H9zm-3.5 3a1.5 1.5 0 1 0 0 3 1.5 1.5 0 0 0 0-3zM18 17v1h-1c-.399 0-.767-.119-1.078-.318-.076.337-.21.649-.389.931a2.95 2.95 0 0 0 1.444.387H18v1l2-1.5-2-1.5z" fill="currentColor" color="#5d656b"/></svg>
